markets/DASH.svg

<svg width="42" height="42" viewBox="0 0 42 42" fill="none" xmlns="http://www.w3.org/2000/svg">
<g clip-path="url(#clip0_7277_55727)">
<path d="M21 42C32.598 42 42 32.598 42 21C42 9.40202 32.598 0 21 0C9.40202 0 0 9.40202 0 21C0 32.598 9.40202 42 21 42Z" fill="#008CE7"/>
<path d="M25.0504 10.5051H15.5007L14.7105 14.9243L23.3232 14.9374C27.5639 14.9374 28.8225 16.477 28.7819 19.0324C28.7635 20.3423 28.1925 22.5578 27.951 23.2718C27.2987 25.1881 25.9547 27.3694 20.9174 27.3629L12.5462 27.3576L11.7561 31.7821H21.2809C24.6396 31.7821 26.0702 31.3896 27.5809 30.6927C30.933 29.1466 32.9294 25.8351 33.7313 21.5131C34.9204 15.0818 33.4373 10.5051 25.0491 10.5051H25.0504Z" fill="white"/>
<path d="M20.7466 20.7348C21.0576 19.442 21.1561 18.9236 21.1561 18.9236H11.3832C8.8842 18.9236 8.5272 20.5511 8.28964 21.5355C7.97858 22.823 7.88014 23.348 7.88014 23.348H17.6543C20.152 23.348 20.509 21.7205 20.7466 20.7348V20.7348Z" fill="white"/>
</g>
<defs>
<clipPath id="clip0_7277_55727">
<rect width="42" height="42" fill="white"/>
</clipPath>
</defs>
</svg>

<svg xmlns="http://www.w3.org/2000/svg" width="42" height="42" fill="none"><g clip-path="url(#a)"><path fill="#008CE7" d="M21 42c11.598 0 21-9.402 21-21S32.598 0 21 0 0 9.402 0 21s9.402 21 21 21Z"/><path fill="#fff" d="M25.05 10.505H15.5l-.79 4.42 8.613.012c4.24 0 5.5 1.54 5.459 4.095-.018 1.31-.59 3.526-.831 4.24-.652 1.916-1.996 4.097-7.034 4.09l-8.37-.004-.79 4.424h9.524c3.359 0 4.79-.392 6.3-1.09 3.352-1.545 5.348-4.857 6.15-9.179 1.19-6.431-.294-11.008-8.682-11.008h.001Z"/><path fill="#fff" d="M20.747 20.735c.31-1.293.41-1.811.41-1.811h-9.774c-2.499 0-2.856 1.627-3.093 2.611-.311 1.288-.41 1.813-.41 1.813h9.774c2.498 0 2.855-1.627 3.093-2.613Z"/></g><defs><clipPath id="a"><path fill="#fff" d="M0 0h42v42H0z"/></clipPath></defs></svg>
